src/lib/packages/icons/src/assets/filled/location-pin-star.svg

<svg width="24" height="24" viewBox="0 0 24 24" fill="none" xmlns="http://www.w3.org/2000/svg">
<path d="M20.5 11C20.5 15.983 15.871 19.041 12.808 21.064L12.278 21.416C12.194 21.472 12.097 21.5 12.001 21.5C11.905 21.5 11.808 21.472 11.724 21.416L11.194 21.064C8.13097 19.041 3.50201 15.983 3.50201 11C3.50201 6.313 7.31501 2.5 12.002 2.5C16.689 2.5 20.5 6.313 20.5 11ZM11.626 7.72803L10.871 9.22607C10.814 9.33907 10.704 9.41706 10.578 9.43506L8.83502 9.68311C8.51502 9.72811 8.38802 10.114 8.61902 10.335L9.87903 11.5371C9.97103 11.6251 10.013 11.752 9.99103 11.876L9.703 13.52C9.644 13.854 10.002 14.1089 10.308 13.9519L11.819 13.175C11.932 13.117 12.068 13.117 12.181 13.175L13.693 13.9529C13.999 14.1099 14.356 13.856 14.297 13.522L14.009 11.876C13.987 11.752 14.029 11.6251 14.121 11.5371L15.381 10.335C15.613 10.114 15.485 9.72811 15.165 9.68311L13.422 9.43506C13.295 9.41706 13.185 9.33907 13.129 9.22607L12.374 7.72803C12.221 7.42403 11.779 7.42403 11.626 7.72803Z" fill="currentColor"/>
</svg>

<svg xmlns="http://www.w3.org/2000/svg" width="24" height="24" fill="none"><path fill="currentColor" d="M20.5 11c0 4.983-4.629 8.041-7.692 10.064l-.53.352a.5.5 0 0 1-.554 0l-.53-.352C8.131 19.041 3.502 15.983 3.502 11c0-4.687 3.813-8.5 8.5-8.5 4.687 0 8.498 3.813 8.498 8.5Zm-8.874-3.272-.755 1.498a.39.39 0 0 1-.293.21l-1.743.247a.38.38 0 0 0-.216.652l1.26 1.202a.378.378 0 0 1 .112.339l-.288 1.644c-.059.334.299.589.605.432l1.511-.777a.398.398 0 0 1 .362 0l1.512.778c.306.157.663-.097.604-.431l-.288-1.646a.378.378 0 0 1 .112-.339l1.26-1.202a.38.38 0 0 0-.216-.652l-1.743-.248a.386.386 0 0 1-.293-.209l-.755-1.498a.42.42 0 0 0-.748 0Z"/></svg>
